X:1
T: Miss Lucy Campbell
C:
R:Strathspey
Q: 128
K:D
M:4/4
L:1/16
|:B2|A3D A3F A3D A3F|A3D A3F BE3 E3F|A3D A3F d3e f3e|d3B ABdA FD3 D2B2|
A3D A3F A3D A3F|A3D A3F BE3 E3F|A3D A3F d3e f3e|d3B ABdA FD3 D2f2|
d3B AF3 d3e f3e|d3B A3F eE3 E3e|d3B A3F d3e f3e|d3B ABdA FD3 D2f2|
d3B AF3 d3e f3e|d3B A3F eE3 E3e|d3B A3F d3e f3e|d3B ABdA FD3 D2:|
